exports/under-5-population-5d4cdea5940b156e2ebd1ba5b1c36021_v1_850x600.svg

<svg xmlns="http://www.w3.org/2000/svg" version="1.1" style="background-color:#fff;-webkit-font-smoothing:antialiased" width="850" height="600" font-family="'Helvetica Neue',Helvetica,Arial,sans-serif" font-size="18" text-rendering="optimizeLegibility"><g class="ChartTab"><g class="HeaderView"><g opacity=".8" transform="matrix(.27 0 0 .27 778 15)"><a xmlns:xlink="http://www.w3.org/1999/xlink" xlink:href="https://ourworldindata.org" target="_blank"><g><path fill="#1B2543" d="M0 0h211.2v130.1H0z"/><path fill="#E63912" d="M0 112.2h211.2v17.9H0z"/><g><path fill="none" d="M1.2 12.3h210.2v99.2H1.2z"/><path fill="#FFF" d="M37.8 32.2c0 12.7-7.7 19.4-17.1 19.4-9.7 0-16.6-7.5-16.6-18.7 0-11.7 7.3-19.3 17.1-19.3 10.1.1 16.6 7.7 16.6 18.6zm-28.6.6c0 7.9 4.3 14.9 11.8 14.9 7.5 0 11.8-6.9 11.8-15.3 0-7.3-3.8-14.9-11.8-14.9-7.9 0-11.8 7.3-11.8 15.3zM62.7 43.8c0 2.7.1 5.1.2 7.2h-4.3l-.3-4.3h-.1c-1.3 2.1-4 4.9-8.8 4.9-4.2 0-9.1-2.3-9.1-11.6V24.6h4.8v14.6c0 5 1.5 8.4 5.9 8.4 3.2 0 5.5-2.2 6.3-4.4.3-.7.4-1.6.4-2.5V24.6h4.8v19.2zM67.3 32.8c0-3.1-.1-5.8-.2-8.2h4.2l.2 5.2h.2c1.2-3.5 4.1-5.8 7.3-5.8.5 0 .9.1 1.4.2v4.5c-.5-.1-1-.2-1.6-.2-3.4 0-5.8 2.6-6.5 6.2-.1.7-.2 1.4-.2 2.2V51h-4.8V32.8zM95.4 51L86 14.2h5l4.4 18.6c1.1 4.6 2.1 9.2 2.7 12.7h.1c.6-3.7 1.8-8 3-12.8l4.9-18.5h5l4.5 18.7c1 4.4 2 8.7 2.6 12.6h.1c.8-4 1.8-8.1 3-12.7l4.9-18.5h4.9L120.6 51h-5L111 31.9c-1.1-4.7-1.9-8.3-2.4-12h-.1c-.7 3.7-1.5 7.3-2.8 12L100.4 51h-5zM154.9 37.6c0 9.8-6.8 14-13.2 14-7.2 0-12.7-5.2-12.7-13.6 0-8.8 5.8-14 13.1-14 7.7 0 12.8 5.5 12.8 13.6zm-21 .3c0 5.8 3.3 10.1 8 10.1 4.6 0 8-4.3 8-10.3 0-4.5-2.2-10.1-7.9-10.1s-8.1 5.2-8.1 10.3zM158.2 32.8c0-3.1-.1-5.8-.2-8.2h4.2l.2 5.2h.2c1.2-3.5 4.1-5.8 7.3-5.8.5 0 .9.1 1.4.2v4.5c-.5-.1-1-.2-1.6-.2-3.4 0-5.8 2.6-6.5 6.2-.1.7-.2 1.4-.2 2.2V51h-4.8V32.8zM173.5 12.3h4.8V51h-4.8V12.3zM206.5 12.3v31.9c0 2.3.1 5 .2 6.8h-4.3l-.2-4.6h-.2c-1.5 2.9-4.7 5.2-9 5.2-6.4 0-11.3-5.4-11.3-13.4-.1-8.8 5.4-14.2 11.9-14.2 4 0 6.8 1.9 8 4h.1V12.3h4.8zm-4.8 23.1c0-.6-.1-1.4-.2-2a7 7 0 00-6.9-5.6c-5 0-7.9 4.4-7.9 10.2 0 5.3 2.6 9.8 7.8 9.8 3.2 0 6.2-2.1 7.1-5.7.2-.7.2-1.3.2-2.1v-4.6zM42.8 64c.1 1.6-1.1 2.9-3.1 2.9-1.7 0-2.9-1.3-2.9-2.9 0-1.7 1.3-3 3-3 1.9 0 3 1.3 3 3zm-5.4 33.8V71.4h4.8v26.4h-4.8zM47.5 78.6c0-2.7-.1-5-.2-7.1h4.3l.3 4.4h.1c1.3-2.5 4.4-5 8.8-5 3.7 0 9.4 2.2 9.4 11.2v15.8h-4.8V82.6c0-4.3-1.6-7.8-6.1-7.8-3.2 0-5.6 2.2-6.5 4.9-.2.6-.3 1.4-.3 2.2v15.9h-4.8V78.6zM84 61.6c2.9-.4 6.3-.8 10.1-.8 6.8 0 11.7 1.6 14.9 4.6 3.3 3 5.2 7.3 5.2 13.2 0 6-1.9 10.9-5.3 14.3-3.4 3.4-9.1 5.3-16.3 5.3-3.4 0-6.2-.2-8.6-.4V61.6zm4.8 32.5c1.2.2 3 .3 4.8.3 10.2 0 15.7-5.7 15.7-15.6.1-8.7-4.9-14.2-14.9-14.2-2.5 0-4.3.2-5.6.5v29zM132.1 97.8l-.4-3.3h-.2a9.79 9.79 0 01-8.1 3.9c-5.4 0-8.1-3.8-8.1-7.6 0-6.4 5.7-9.9 15.9-9.8v-.5c0-2.2-.6-6.1-6-6.1-2.5 0-5 .8-6.9 2l-1.1-3.2c2.2-1.4 5.4-2.3 8.7-2.3 8.1 0 10.1 5.5 10.1 10.8v9.9c0 2.3.1 4.5.4 6.3h-4.3zm-.7-13.4c-5.3-.1-11.2.8-11.2 5.9 0 3.1 2.1 4.6 4.5 4.6 3.4 0 5.6-2.2 6.4-4.4.2-.5.3-1 .3-1.5v-4.6zM146.6 63.9v7.6h6.9v3.7h-6.9v14.2c0 3.3.9 5.1 3.6 5.1 1.3 0 2.2-.2 2.8-.3l.2 3.6c-.9.4-2.4.7-4.3.7-2.2 0-4-.7-5.2-2-1.4-1.4-1.9-3.8-1.9-6.9V75.1h-4.1v-3.7h4.1v-6.3l4.8-1.2zM171.4 97.8l-.4-3.3h-.2a9.79 9.79 0 01-8.1 3.9c-5.4 0-8.1-3.8-8.1-7.6 0-6.4 5.7-9.9 15.9-9.8v-.5c0-2.2-.6-6.1-6-6.1-2.5 0-5 .8-6.9 2l-1.1-3.2c2.2-1.4 5.4-2.3 8.7-2.3 8.1 0 10.1 5.5 10.1 10.8v9.9c0 2.3.1 4.5.4 6.3h-4.3zm-.7-13.4c-5.3-.1-11.2.8-11.2 5.9 0 3.1 2.1 4.6 4.5 4.6 3.4 0 5.6-2.2 6.4-4.4.2-.5.3-1 .3-1.5v-4.6z"/></g></g></a></g><a href="https://ourworldindata.org/grapher/under-5-population?country=DEU" target="_blank"><text font-size="25.2" x="15" y="35.2" fill="#555"><tspan x="15" y="35.16">Number of children under 5 years old, Germany</tspan></text></a><text font-size="14.4" x="15" y="53.7" fill="#666"><tspan x="15" y="53.72">The total population under 5 years old, given as historic estimates and projections to 2100 based on the UN&apos;s median</tspan><tspan x="15" y="69.56">fertility scenario.</tspan></text></g><g class="LineChart"><defs><clipPath id="a"><path d="M69.45 0h830v928.8h-830z"/></clipPath></defs><g class="AxisBoxView"><g class="HorizontalAxis" fill="#666" text-anchor="middle" font-size="16.2"><text x="79.5" y="556.5">1950</text><text x="127.5" y="556.5">1960</text><text x="223.6" y="556.5">1980</text><text x="319.6" y="556.5">2000</text><text x="415.7" y="556.5">2020</text><text x="511.8" y="556.5">2040</text><text x="607.9" y="556.5">2060</text><text x="703.9" y="556.5">2080</text><text x="800" y="556.5">2100</text></g><g class="VerticalAxis" fill="#666" dominant-baseline="middle" text-anchor="end" font-size="16.2"><text x="74.45" y="535.3">0</text><text x="74.45" y="467.2">1 million</text><text x="74.45" y="399.1">2 million</text><text x="74.45" y="330.9">3 million</text><text x="74.45" y="262.8">4 million</text><text x="74.45" y="194.7">5 million</text><text x="74.45" y="126.6">6 million</text></g><g class="AxisGridLines"><path stroke="#ccc" d="M79.45 535.3H800"/><path stroke="#ddd" stroke-dasharray="3,2" d="M79.45 467.2H800M79.45 399.1H800M79.45 330.9H800M79.45 262.8H800M79.45 194.7H800M79.45 126.6H800"/></g></g><g clip-path="url(#a)"><g class="Lines"><g class="key-Germany_0"><path stroke="#ca2628" stroke-linecap="round" d="M80 222l4-11 5-12 5-10 5-7 5-6 4-16 5-7 5-3 5-3 5-7 4-2 5-9 5-12 5-10 5-6 4-8 5-1 5 6 5 10 5 14 4 18 5 23 5 26 5 24 5 20 4 27 5 10h5l5-4 5-1 4-11 5-3 5 3 5 2 5-1 4-4 5-4 5-4 5-3 5-2 4 1 5 4 5 5 5 5 5 4 4 9 5 3 5-1 5-1 5 1 4-1 5 4 5 6 5 8 5 5 5 7 4 4 5 2 5 1h10l4-2 5-1 5-3 5-2" fill="none" stroke-width="1.5"/><g fill="#ca2628"><circle cx="80" cy="222" r="2"/><circle cx="84" cy="211" r="2"/><circle cx="89" cy="199" r="2"/><circle cx="94" cy="189" r="2"/><circle cx="99" cy="182" r="2"/><circle cx="104" cy="176" r="2"/><circle cx="108" cy="160" r="2"/><circle cx="113" cy="153" r="2"/><circle cx="118" cy="150" r="2"/><circle cx="123" cy="147" r="2"/><circle cx="128" cy="140" r="2"/><circle cx="132" cy="138" r="2"/><circle cx="137" cy="129" r="2"/><circle cx="142" cy="117" r="2"/><circle cx="147" cy="107" r="2"/><circle cx="152" cy="101" r="2"/><circle cx="156" cy="93" r="2"/><circle cx="161" cy="92" r="2"/><circle cx="166" cy="98" r="2"/><circle cx="171" cy="108" r="2"/><circle cx="176" cy="122" r="2"/><circle cx="180" cy="140" r="2"/><circle cx="185" cy="163" r="2"/><circle cx="190" cy="189" r="2"/><circle cx="195" cy="213" r="2"/><circle cx="200" cy="233" r="2"/><circle cx="204" cy="260" r="2"/><circle cx="209" cy="270" r="2"/><circle cx="214" cy="270" r="2"/><circle cx="219" cy="266" r="2"/><circle cx="224" cy="265" r="2"/><circle cx="228" cy="254" r="2"/><circle cx="233" cy="251" r="2"/><circle cx="238" cy="254" r="2"/><circle cx="243" cy="256" r="2"/><circle cx="248" cy="255" r="2"/><circle cx="252" cy="251" r="2"/><circle cx="257" cy="247" r="2"/><circle cx="262" cy="243" r="2"/><circle cx="267" cy="240" r="2"/><circle cx="272" cy="238" r="2"/><circle cx="276" cy="239" r="2"/><circle cx="281" cy="243" r="2"/><circle cx="286" cy="248" r="2"/><circle cx="291" cy="253" r="2"/><circle cx="296" cy="257" r="2"/><circle cx="300" cy="266" r="2"/><circle cx="305" cy="269" r="2"/><circle cx="310" cy="268" r="2"/><circle cx="315" cy="267" r="2"/><circle cx="320" cy="268" r="2"/><circle cx="324" cy="267" r="2"/><circle cx="329" cy="271" r="2"/><circle cx="334" cy="277" r="2"/><circle cx="339" cy="285" r="2"/><circle cx="344" cy="290" r="2"/><circle cx="349" cy="297" r="2"/><circle cx="353" cy="301" r="2"/><circle cx="358" cy="303" r="2"/><circle cx="363" cy="304" r="2"/><circle cx="368" cy="304" r="2"/><circle cx="373" cy="304" r="2"/><circle cx="377" cy="302" r="2"/><circle cx="382" cy="301" r="2"/><circle cx="387" cy="298" r="2"/><circle cx="392" cy="296" r="2"/></g></g><g class="key-Germany_1"><path stroke="#3360a9" stroke-linecap="round" d="M392 296l5-3 4-3 5-2 5-2 5-2 5-1 4-1 5-1 5-1h5l5 1 4 1 5 2 5 1 5 2 5 3 4 2 5 2 5 2 5 2 5 2 4 2 5 2 5 1 5 1 5 1h4l5 1h10l5-1h4l5-1 5-1 5-1 5-1 4-1 5-1 5-1h5l5-1h19l5 1 5 1h4l5 1 5 1 5 2 5 1 4 1 5 1 5 1 5 1 5 1h4l5 1 5 1h19l5 1 5-1h43l5 1h9l5 1h5l5 1 5 1h4l5 1 5 2" fill="none" stroke-width="1.5" stroke-dasharray="1,4"/></g></g></g></g><g class="SourcesFooter" fill="#777"><g class="clickable" fill="#777"><text font-size="12.6" x="15" y="581.6"><tspan x="15" y="581.58">Source: UN Population Division (2017 Revision)</tspan></text></g><text font-size="12.6" x="775.4" y="581.6"><tspan x="775.4" y="581.58"><a class="cclogo" href="http://creativecommons.org/licenses/by-sa/4.0/deed.en_US" target="_blank" fill="#777">CC BY-SA</a></tspan></text></g></g></svg>

<svg xmlns="http://www.w3.org/2000/svg" version="1.1" style="font-family: 'Helvetica Neue', Helvetica, Arial, sans-serif; font-size: 18px; background-color: white; text-rendering: optimizeLegibility; -webkit-font-smoothing: antialiased;" width="850" height="600"><g class="ChartTab"><g class="HeaderView"><g opacity="0.8" transform="translate(778, 15) scale(0.27)"><a xmlns:xlink="http://www.w3.org/1999/xlink" xlink:href="https://ourworldindata.org" target="_blank"><g><rect x="0" y="0" fill="#1B2543" width="211.2" height="130.1"/><rect x="0" y="112.2" fill="#E63912" width="211.2" height="17.9"/><g><rect x="1.2" y="12.3" fill="none" width="210.2" height="99.2"/><path fill="#FFFFFF" d="M37.8,32.2c0,12.7-7.7,19.4-17.1,19.4c-9.7,0-16.6-7.5-16.6-18.7c0-11.7,7.3-19.3,17.1-19.3 C31.3,13.7,37.8,21.3,37.8,32.2z M9.2,32.8c0,7.9,4.3,14.9,11.8,14.9c7.5,0,11.8-6.9,11.8-15.3c0-7.3-3.8-14.9-11.8-14.9 C13.1,17.5,9.2,24.8,9.2,32.8z"/><path fill="#FFFFFF" d="M62.7,43.8c0,2.7,0.1,5.1,0.2,7.2h-4.3l-0.3-4.3h-0.1c-1.3,2.1-4,4.9-8.8,4.9c-4.2,0-9.1-2.3-9.1-11.6 V24.6h4.8v14.6c0,5,1.5,8.4,5.9,8.4c3.2,0,5.5-2.2,6.3-4.4c0.3-0.7,0.4-1.6,0.4-2.5V24.6h4.8V43.8z"/><path fill="#FFFFFF" d="M67.3,32.8c0-3.1-0.1-5.8-0.2-8.2h4.2l0.2,5.2h0.2c1.2-3.5,4.1-5.8,7.3-5.8c0.5,0,0.9,0.1,1.4,0.2v4.5 c-0.5-0.1-1-0.2-1.6-0.2c-3.4,0-5.8,2.6-6.5,6.2c-0.1,0.7-0.2,1.4-0.2,2.2V51h-4.8V32.8z"/><path fill="#FFFFFF" d="M95.4,51l-9.4-36.8h5l4.4,18.6c1.1,4.6,2.1,9.2,2.7,12.7h0.1c0.6-3.7,1.8-8,3-12.8l4.9-18.5h5l4.5,18.7 c1,4.4,2,8.7,2.6,12.6h0.1c0.8-4,1.8-8.1,3-12.7l4.9-18.5h4.9L120.6,51h-5L111,31.9c-1.1-4.7-1.9-8.3-2.4-12h-0.1 c-0.7,3.7-1.5,7.3-2.8,12L100.4,51H95.4z"/><path fill="#FFFFFF" d="M154.9,37.6c0,9.8-6.8,14-13.2,14c-7.2,0-12.7-5.2-12.7-13.6c0-8.8,5.8-14,13.1-14 C149.8,24,154.9,29.5,154.9,37.6z M133.9,37.9c0,5.8,3.3,10.1,8,10.1c4.6,0,8-4.3,8-10.3c0-4.5-2.2-10.1-7.9-10.1 C136.3,27.6,133.9,32.8,133.9,37.9z"/><path fill="#FFFFFF" d="M158.2,32.8c0-3.1-0.1-5.8-0.2-8.2h4.2l0.2,5.2h0.2c1.2-3.5,4.1-5.8,7.3-5.8c0.5,0,0.9,0.1,1.4,0.2v4.5 c-0.5-0.1-1-0.2-1.6-0.2c-3.4,0-5.8,2.6-6.5,6.2c-0.1,0.7-0.2,1.4-0.2,2.2V51h-4.8V32.8z"/><path fill="#FFFFFF" d="M173.5,12.3h4.8V51h-4.8V12.3z"/><path fill="#FFFFFF" d="M206.5,12.3v31.9c0,2.3,0.1,5,0.2,6.8h-4.3l-0.2-4.6H202c-1.5,2.9-4.7,5.2-9,5.2 c-6.4,0-11.3-5.4-11.3-13.4c-0.1-8.8,5.4-14.2,11.9-14.2c4,0,6.8,1.9,8,4h0.1V12.3H206.5z M201.7,35.4c0-0.6-0.1-1.4-0.2-2 c-0.7-3.1-3.3-5.6-6.9-5.6c-5,0-7.9,4.4-7.9,10.2c0,5.3,2.6,9.8,7.8,9.8c3.2,0,6.2-2.1,7.1-5.7c0.2-0.7,0.2-1.3,0.2-2.1V35.4z"/><path fill="#FFFFFF" d="M42.8,64c0.1,1.6-1.1,2.9-3.1,2.9c-1.7,0-2.9-1.3-2.9-2.9c0-1.7,1.3-3,3-3C41.7,61,42.8,62.3,42.8,64z M37.4,97.8V71.4h4.8v26.4H37.4z"/><path fill="#FFFFFF" d="M47.5,78.6c0-2.7-0.1-5-0.2-7.1h4.3l0.3,4.4h0.1c1.3-2.5,4.4-5,8.8-5c3.7,0,9.4,2.2,9.4,11.2v15.8h-4.8 V82.6c0-4.3-1.6-7.8-6.1-7.8c-3.2,0-5.6,2.2-6.5,4.9c-0.2,0.6-0.3,1.4-0.3,2.2v15.9h-4.8V78.6z"/><path fill="#FFFFFF" d="M84,61.6c2.9-0.4,6.3-0.8,10.1-0.8c6.8,0,11.7,1.6,14.9,4.6c3.3,3,5.2,7.3,5.2,13.2c0,6-1.9,10.9-5.3,14.3 c-3.4,3.4-9.1,5.3-16.3,5.3c-3.4,0-6.2-0.2-8.6-0.4V61.6z M88.8,94.1c1.2,0.2,3,0.3,4.8,0.3c10.2,0,15.7-5.7,15.7-15.6 c0.1-8.7-4.9-14.2-14.9-14.2c-2.5,0-4.3,0.2-5.6,0.5V94.1z"/><path fill="#FFFFFF" d="M132.1,97.8l-0.4-3.3h-0.2c-1.5,2.1-4.3,3.9-8.1,3.9c-5.4,0-8.1-3.8-8.1-7.6c0-6.4,5.7-9.9,15.9-9.8v-0.5 c0-2.2-0.6-6.1-6-6.1c-2.5,0-5,0.8-6.9,2l-1.1-3.2c2.2-1.4,5.4-2.3,8.7-2.3c8.1,0,10.1,5.5,10.1,10.8v9.9c0,2.3,0.1,4.5,0.4,6.3 H132.1z M131.4,84.4c-5.3-0.1-11.2,0.8-11.2,5.9c0,3.1,2.1,4.6,4.5,4.6c3.4,0,5.6-2.2,6.4-4.4c0.2-0.5,0.3-1,0.3-1.5V84.4z"/><path fill="#FFFFFF" d="M146.6,63.9v7.6h6.9v3.7h-6.9v14.2c0,3.3,0.9,5.1,3.6,5.1c1.3,0,2.2-0.2,2.8-0.3l0.2,3.6 c-0.9,0.4-2.4,0.7-4.3,0.7c-2.2,0-4-0.7-5.2-2c-1.4-1.4-1.9-3.8-1.9-6.9V75.1h-4.1v-3.7h4.1v-6.3L146.6,63.9z"/><path fill="#FFFFFF" d="M171.4,97.8l-0.4-3.3h-0.2c-1.5,2.1-4.3,3.9-8.1,3.9c-5.4,0-8.1-3.8-8.1-7.6c0-6.4,5.7-9.9,15.9-9.8v-0.5 c0-2.2-0.6-6.1-6-6.1c-2.5,0-5,0.8-6.9,2l-1.1-3.2c2.2-1.4,5.4-2.3,8.7-2.3c8.1,0,10.1,5.5,10.1,10.8v9.9c0,2.3,0.1,4.5,0.4,6.3 H171.4z M170.7,84.4c-5.3-0.1-11.2,0.8-11.2,5.9c0,3.1,2.1,4.6,4.5,4.6c3.4,0,5.6-2.2,6.4-4.4c0.2-0.5,0.3-1,0.3-1.5V84.4z"/></g></g></a></g><a href="https://ourworldindata.org/grapher/under-5-population?country=DEU" target="_blank"><text font-size="25.20" x="15.0" y="35.2" fill="#555"><tspan x="15" y="35.160000000000004">Number of children under 5 years old, Germany</tspan></text></a><text font-size="14.40" x="15.0" y="53.7" fill="#666"><tspan x="15" y="53.72">The total population under 5 years old, given as historic estimates and projections to 2100 based on the UN's median</tspan><tspan x="15" y="69.56">fertility scenario.</tspan></text></g><g class="LineChart"><defs><clipPath id="boundsClip-1"><rect x="69.45400000000001" y="0" width="830" height="928.8"></rect></clipPath></defs><g class="AxisBoxView"><g class="HorizontalAxis"><text x="79.5" y="556.5" fill="#666" text-anchor="middle" font-size="16.2">1950</text><text x="127.5" y="556.5" fill="#666" text-anchor="middle" font-size="16.2">1960</text><text x="223.6" y="556.5" fill="#666" text-anchor="middle" font-size="16.2">1980</text><text x="319.6" y="556.5" fill="#666" text-anchor="middle" font-size="16.2">2000</text><text x="415.7" y="556.5" fill="#666" text-anchor="middle" font-size="16.2">2020</text><text x="511.8" y="556.5" fill="#666" text-anchor="middle" font-size="16.2">2040</text><text x="607.9" y="556.5" fill="#666" text-anchor="middle" font-size="16.2">2060</text><text x="703.9" y="556.5" fill="#666" text-anchor="middle" font-size="16.2">2080</text><text x="800" y="556.5" fill="#666" text-anchor="middle" font-size="16.2">2100</text></g><g class="VerticalAxis"><text x="74.45" y="535.3" fill="#666" dominant-baseline="middle" text-anchor="end" font-size="16.2">0</text><text x="74.45" y="467.2" fill="#666" dominant-baseline="middle" text-anchor="end" font-size="16.2">1 million</text><text x="74.45" y="399.1" fill="#666" dominant-baseline="middle" text-anchor="end" font-size="16.2">2 million</text><text x="74.45" y="330.9" fill="#666" dominant-baseline="middle" text-anchor="end" font-size="16.2">3 million</text><text x="74.45" y="262.8" fill="#666" dominant-baseline="middle" text-anchor="end" font-size="16.2">4 million</text><text x="74.45" y="194.7" fill="#666" dominant-baseline="middle" text-anchor="end" font-size="16.2">5 million</text><text x="74.45" y="126.6" fill="#666" dominant-baseline="middle" text-anchor="end" font-size="16.2">6 million</text></g><g class="AxisGridLines"><line x1="79.45" y1="535.3" x2="800.00" y2="535.3" stroke="#ccc"></line><line x1="79.45" y1="467.2" x2="800.00" y2="467.2" stroke="#ddd" stroke-dasharray="3,2"></line><line x1="79.45" y1="399.1" x2="800.00" y2="399.1" stroke="#ddd" stroke-dasharray="3,2"></line><line x1="79.45" y1="330.9" x2="800.00" y2="330.9" stroke="#ddd" stroke-dasharray="3,2"></line><line x1="79.45" y1="262.8" x2="800.00" y2="262.8" stroke="#ddd" stroke-dasharray="3,2"></line><line x1="79.45" y1="194.7" x2="800.00" y2="194.7" stroke="#ddd" stroke-dasharray="3,2"></line><line x1="79.45" y1="126.6" x2="800.00" y2="126.6" stroke="#ddd" stroke-dasharray="3,2"></line></g></g><g clip-path="url(#boundsClip-1)"><g class="HeightedLegend clickable"><g class="legendMark"><rect x="800" y="320.05" width="35" height="-1.1" fill="#fff" opacity="0"></rect></g></g><g class="Lines"><rect x="79" y="92" width="721" height="443" fill="rgba(255,255,255,0)" opacity="0"></rect><g class="key-Germany_0"><path stroke="#ca2628" stroke-linecap="round" d="M80 222L84 211L89 199L94 189L99 182L104 176L108 160L113 153L118 150L123 147L128 140L132 138L137 129L142 117L147 107L152 101L156 93L161 92L166 98L171 108L176 122L180 140L185 163L190 189L195 213L200 233L204 260L209 270L214 270L219 266L224 265L228 254L233 251L238 254L243 256L248 255L252 251L257 247L262 243L267 240L272 238L276 239L281 243L286 248L291 253L296 257L300 266L305 269L310 268L315 267L320 268L324 267L329 271L334 277L339 285L344 290L349 297L353 301L358 303L363 304L368 304L373 304L377 302L382 301L387 298L392 296" fill="none" stroke-width="1.5"></path><g fill="#ca2628"><circle cx="80" cy="222" r="2"></circle><circle cx="84" cy="211" r="2"></circle><circle cx="89" cy="199" r="2"></circle><circle cx="94" cy="189" r="2"></circle><circle cx="99" cy="182" r="2"></circle><circle cx="104" cy="176" r="2"></circle><circle cx="108" cy="160" r="2"></circle><circle cx="113" cy="153" r="2"></circle><circle cx="118" cy="150" r="2"></circle><circle cx="123" cy="147" r="2"></circle><circle cx="128" cy="140" r="2"></circle><circle cx="132" cy="138" r="2"></circle><circle cx="137" cy="129" r="2"></circle><circle cx="142" cy="117" r="2"></circle><circle cx="147" cy="107" r="2"></circle><circle cx="152" cy="101" r="2"></circle><circle cx="156" cy="93" r="2"></circle><circle cx="161" cy="92" r="2"></circle><circle cx="166" cy="98" r="2"></circle><circle cx="171" cy="108" r="2"></circle><circle cx="176" cy="122" r="2"></circle><circle cx="180" cy="140" r="2"></circle><circle cx="185" cy="163" r="2"></circle><circle cx="190" cy="189" r="2"></circle><circle cx="195" cy="213" r="2"></circle><circle cx="200" cy="233" r="2"></circle><circle cx="204" cy="260" r="2"></circle><circle cx="209" cy="270" r="2"></circle><circle cx="214" cy="270" r="2"></circle><circle cx="219" cy="266" r="2"></circle><circle cx="224" cy="265" r="2"></circle><circle cx="228" cy="254" r="2"></circle><circle cx="233" cy="251" r="2"></circle><circle cx="238" cy="254" r="2"></circle><circle cx="243" cy="256" r="2"></circle><circle cx="248" cy="255" r="2"></circle><circle cx="252" cy="251" r="2"></circle><circle cx="257" cy="247" r="2"></circle><circle cx="262" cy="243" r="2"></circle><circle cx="267" cy="240" r="2"></circle><circle cx="272" cy="238" r="2"></circle><circle cx="276" cy="239" r="2"></circle><circle cx="281" cy="243" r="2"></circle><circle cx="286" cy="248" r="2"></circle><circle cx="291" cy="253" r="2"></circle><circle cx="296" cy="257" r="2"></circle><circle cx="300" cy="266" r="2"></circle><circle cx="305" cy="269" r="2"></circle><circle cx="310" cy="268" r="2"></circle><circle cx="315" cy="267" r="2"></circle><circle cx="320" cy="268" r="2"></circle><circle cx="324" cy="267" r="2"></circle><circle cx="329" cy="271" r="2"></circle><circle cx="334" cy="277" r="2"></circle><circle cx="339" cy="285" r="2"></circle><circle cx="344" cy="290" r="2"></circle><circle cx="349" cy="297" r="2"></circle><circle cx="353" cy="301" r="2"></circle><circle cx="358" cy="303" r="2"></circle><circle cx="363" cy="304" r="2"></circle><circle cx="368" cy="304" r="2"></circle><circle cx="373" cy="304" r="2"></circle><circle cx="377" cy="302" r="2"></circle><circle cx="382" cy="301" r="2"></circle><circle cx="387" cy="298" r="2"></circle><circle cx="392" cy="296" r="2"></circle></g></g><g class="key-Germany_1"><path stroke="#3360a9" stroke-linecap="round" d="M392 296L397 293L401 290L406 288L411 286L416 284L421 283L425 282L430 281L435 280L440 280L445 281L449 282L454 284L459 285L464 287L469 290L473 292L478 294L483 296L488 298L493 300L497 302L502 304L507 305L512 306L517 307L521 307L526 308L531 308L536 308L541 307L545 307L550 306L555 305L560 304L565 303L569 302L574 301L579 300L584 300L589 299L593 299L598 299L603 299L608 299L613 300L618 301L622 301L627 302L632 303L637 305L642 306L646 307L651 308L656 309L661 310L666 311L670 311L675 312L680 313L685 313L690 313L694 313L699 313L704 314L709 313L714 313L718 313L723 313L728 313L733 313L738 313L742 313L747 313L752 313L757 314L762 314L766 314L771 315L776 315L781 316L786 317L790 317L795 318L800 320" fill="none" stroke-width="1.5" stroke-dasharray="1,4"></path></g></g></g></g><g style="fill: #777;" class="SourcesFooter"><g style="fill: #777;" class="clickable"><text font-size="12.60" x="15.0" y="581.6"><tspan x="15" y="581.58">Source: UN Population Division (2017 Revision)</tspan></text></g><text font-size="12.60" x="775.4" y="581.6"><tspan x="775.402" y="581.58"><a style="fill: #777;" class="cclogo" href="http://creativecommons.org/licenses/by-sa/4.0/deed.en_US" target="_blank">CC BY-SA</a></tspan></text></g></g></svg>
